X:1
T:[ID 9-57]
T:[ID 9-57]
T:Bezeichnung standardisiert: March March
T:Urheber unbekannt Datum in der hier transkribierten schriftlichen Quelle: 1796
C:Urheber unbekannt
C:Datum in der hier transkribierten schriftlichen Quelle: 1796
L:1/8
M:2/4
K:D
V:1 treble 
V:1
 DD/D/ F/F/A/A/ | dD z d/f/ | e/c/d/f/ e/c/d/a/ | gf z d/f/ | e/c/d/f/ e/c/d/F/ | GF z2 | %6
 ee/e/ ec | Ae/e/ ed | c/e/ (3f/e/d/ cB | Ae/e/ ed | Ae/e/ ed | c/e/ (3f/e/d/ cB | %12
 AA,/A,/ C/C/E/E/ | AA,/A,/ A,2 :: AA/A/ c/c/e/e/ | aA z A/c/ | B/^G/A/c/ B/G/A/e/ | dc z d/f/ | %18
 e/c/d/f/ e/c/d/F/ | GF z A/A/ | BB/G/ cc/A/ | BB/G/ ee/c/ | fa/a/ ag | f/a/a/f/ g/f/f/e/ | %24
 f(3g/f/e/ dc | d/f/g/e/ dc | dD/D/ F/F/A/A/ | dD/D/ D2 :| %28

